X: 130
M: 6/8
L: 1/8
K: Bb
gab bag | fgf fdB | eGG G2A | Bcd def |
gcc c2F | BcB dfd | BcB dfd | BcB dfd |\

